X:1
T: The Bridge of Athlone
C:
R:Jig
Q:180
K:D
M:6/8
L:1/16
A4A2 A2B2c2|d4A2 F2D2F2|A4G2 E2F2G2|B4A2 F2D2F2|A4A2 A2B2c2|d2f2d2 A4F2|G2B2A2 G2F2E2|D6 D4A2|
f4d2 A2F2A2|f4d2 A2F2A2|g4e2 c2d2e2|d2c2B2 A4A2|f4d2 A2F2A2|f4d2 A4A2|A2e2f2 g2f2e2|d2f2e2 d2c2B2|
A4A2 A4A2|A2B2A2 A2B2A2|A4d2 d2c2d2|e2d2B2 A2F2G2|A4A2 A4A2|A2B2A2 A2c2d2|e4e2 e2f2e2|d6 d4ef|
g4g2 e2f2g2|f4f2 f2e2d2|e4d2 d2c2d2|e2c2A2 A2e2f2|g4g2 e2f2g2|f4f2 f2e2d2|e2c2A2 A2c2d2|e2f2e2 d2c2B2||
